X:33
T:Sally Ann Johnson
M:C|
L:1/8
K:D
|:"D"FGAB A3A|"G"BABd "D"d2-d2|f2f2edBd|"Bm"fded BdAG|
"D"FGAB A3A|"G"BABd "D"d2-d2|fagf "A"egfe |"D"d3cd4:|
|:"D"defg a4|"G"b2b2"D"f3f|"G"gfgf edBd|"D"eded "A"BdA2|
"D"defga4|"G"b2b2"D"f3f|gfgf edBd|"A"fdec "D"d4:|
